M155 S0  ;
M105 S0;
M211 S0;
M106 P2 S255 ;
M851 Z-8.5
M420 S1 ;
G29 F0;
G29 A;
G28;
G21         ; Set units to mm
G90         ; Absolute positioning
G0 Z30 ;
;G0 X5 Y5 ;
;G92 X0 Y0;

; Pass 0

; First Move
G0 X5.03 Y1.03 

; Pass Z Height 11.7mm (Offset: 10.2mm)
G0 Z11.700
M3; 
; Generated by LaserWeb (lw.raster-to-gcode.js)
; Size       : 0 x 0 mm
; PPI        : x: 1016 - y: 1016
; PPM        : x: 0.025 - y: 0.025
; Tool diam. : 0.05 mm
; Feed rate  : 200 mm/min
; Beam range : 0 to 100
; Beam power : 0 to 35 %
; Options    : burnWhite

G1 F200

G1 X5.03 Y1.03 S0.0000
X5.05 S7.8235
X5.10 S17.5686
X5.15
X5.20
X5.25
X5.30
X5.35
X5.40
X5.45
X5.50
X5.55
X5.60
X5.65
X5.70
X5.75
X5.80
X5.85
X5.90
X5.95
X6.00
X6.05
X6.10
X6.15
X6.20
X6.25
X6.30
X6.35
X6.40
X6.45
X6.50
X6.55
X6.60
X6.65
X6.70
X6.75
X6.80
X6.85
X6.90
X6.95
X7.00
X7.05
X7.10
X7.15
X7.20
X7.25
X7.30
X7.35
X7.40
X7.45
X7.50
X7.55
X7.60
X7.65
X7.70
X7.75
X7.80
X7.85
X7.90
X7.95
X8.00
X8.05
X8.10
X8.15
X8.20
X8.25
X8.30
X8.35
X8.40
X8.45
X8.50
X8.55
X8.60
X8.65
X8.70
X8.75
X8.80
X8.85
X8.90
X8.95
X9.00
X9.05
X9.10
X9.15
X9.20
X9.25
X9.30
X9.35
X9.40
X9.45
X9.50
X9.55
X9.60
X9.65
X9.70
X9.75
X9.80
X9.85
X9.90
X9.95
X10.00
X10.05
X10.10
X10.15
X10.20
X10.25
X10.30
X10.35
X10.40
X10.45
X10.50
X10.55
X10.60
X10.65
X10.70
X10.75
X10.80
X10.85
X10.90
X10.95
X11.00
X11.05
X11.10
X11.15
X11.20
X11.25
X11.30
X11.35
X11.40
X11.45
X11.50
X11.55
X11.60
X11.65
X11.70
X11.75
X11.80
X11.85
X11.90
X11.95
X12.00
X12.05
X12.10
X12.15
X12.20
X12.25
X12.30
X12.35
X12.40
X12.45
X12.50
X12.55
X12.60
X12.65
X12.70
X12.75
X12.80
X12.85
X12.90
X12.95
X13.00
X13.05
X13.10
X13.15
X13.20
X13.25
X13.30
X13.35
X13.40
X13.45
X13.50
X13.55
X13.60
X13.65
X13.70
X13.75
X13.80
X13.85
X13.90
X13.95
X14.00
X14.05
X14.10
X14.15
X14.20
X14.25
X14.30
X14.35
X14.40
X14.45
X14.50
X14.55
X14.60
X14.65
X14.70
X14.75
X14.80
X14.85
X14.90
X14.95
X15.00
X15.05
X15.10
X15.15
X15.20
X15.25
X15.30
X15.35
X15.40
X15.45
X15.50
X15.55
X15.60
X15.65
X15.70
X15.75
X15.80
X15.85
X15.90
X15.95
X16.00
X16.05
X16.10
X16.15
X16.20
X16.25
X16.30
X16.35
X16.40
X16.45
X16.50
X16.55
X16.60
X16.65
X16.70
X16.75
X16.80
X16.85
X16.90
X16.95
X17.00
X17.05
X17.10
X17.15
X17.20
X17.25
X17.30
X17.35
X17.40
X17.45
X17.50
X17.55
X17.60
X17.65
X17.70
X17.75
X17.80
X17.85
X17.90
X17.95
X18.00
X18.05
X18.10
X18.15
X18.20
X18.25
X18.30
X18.35
X18.40
X18.45
X18.50
X18.55
X18.60
X18.65
X18.70
X18.75
X18.80
X18.85
X18.90
X18.95
X19.00
X19.05
X19.10
X19.15
X19.20
X19.25
X19.30
X19.35
X19.40
X19.45
X19.50
X19.55
X19.60
X19.65
X19.70
X19.75
X19.80
X19.85
X19.90
X19.95
X20.00
X20.05
X20.10
X20.15
X20.20
X20.25
X20.30
X20.35
X20.40
X20.45
X20.50
X20.55
X20.60
X20.65
X20.70
X20.75
X20.80
X20.85
X20.90
X20.95
X21.00
X21.05
X21.10
X21.15
X21.20
X21.25
X21.30
X21.35
X21.40
X21.45
X21.50
X21.55
X21.60
X21.65
X21.70
X21.75
X21.80
X21.85
X21.90
X21.95
X22.00
X22.05
X22.10
X22.15
X22.20
X22.25
X22.30
X22.35
X22.40
X22.45
X22.50
X22.55
X22.60
X22.65
X22.70
X22.75
X22.80
X22.85
X22.90
X22.95
X23.00
X23.05
X23.10
X23.15
X23.20
X23.25
X23.30
X23.35
X23.40
X23.45
X23.50
X23.55
X23.60
X23.65
X23.70
X23.75
X23.80
X23.85
X23.90
X23.95
X24.00
X24.05
X24.10
X24.15
X24.20
X24.25
X24.30
X24.35
X24.40
X24.45
X24.50
X24.55
X24.60
X24.65
X24.70
X24.75
X24.80
X24.85
X24.90
X24.95
X25.00
X25.05
X25.10
X25.15
X25.20
X25.25
X25.30
X25.35
X25.40
X25.45
X25.50
X25.55
X25.60
X25.65
X25.70
X25.75
X25.80
X25.85
X25.90
X25.95
X26.00
X26.05
X26.10
X26.15
X26.20
X26.25
X26.30
X26.35
X26.40
X26.45
X26.50
X26.55
X26.60
X26.65
X26.70
X26.75
X26.80
X26.85
X26.90
X26.95
X27.00
X27.05
X27.10
X27.15
X27.20
X27.25
X27.30
X27.35
X27.40
X27.45
X27.50
X27.55
X27.60
X27.65
X27.70
X27.75
X27.80
X27.85
X27.90
X27.95
X28.00
X28.05
X28.10
X28.15
X28.20
X28.25
X28.30
X28.35
X28.40
X28.45
X28.50
X28.55
X28.60
X28.65
X28.70
X28.75
X28.80
X28.85
X28.90
X28.95
X29.00
X29.05
X29.10
X29.15
X29.20
X29.25
X29.30
X29.35
X29.40
X29.45
X29.50
X29.55
X29.60
X29.65
X29.70
X29.75
X29.80
X29.85
X29.90
X29.95
X30.00
X30.05
X30.10
X30.15
X30.20
X30.25
X30.30
X30.35
X30.40
X30.45
X30.50
X30.55
X30.60
X30.65
X30.70
X30.75
X30.80
X30.85
X30.90
X30.95
X31.00
X31.05
X31.10
X31.15
X31.20
X31.25
X31.30
X31.35
X31.40
X31.45
X31.50
X31.55
X31.60
X31.65
X31.70
X31.75
X31.80
X31.85
X31.90
X31.95
X32.00
X32.05
X32.10
X32.15
X32.20
X32.25
X32.30
X32.35
X32.40
X32.45
X32.50
X32.55
X32.60
X32.65
X32.70
X32.75
X32.80
X32.85
X32.90
X32.95
X33.00
X33.05
X33.10
X33.15
X33.20
X33.25
X33.30
X33.35
X33.40
X33.45
X33.50
X33.55
X33.60
X33.65
X33.70
X33.75
X33.80
X33.85
X33.90
X33.95
X34.00
X34.05
X34.10
X34.15
X34.20
X34.25
X34.30
X34.35
X34.40
X34.45
X34.50
X34.55
X34.60
X34.65
X34.70
X34.75
X34.80
X34.85
X34.90
X34.95
X35.00
X35.05
X35.10
X35.15
X35.20
X35.25
X35.30
X35.35
X35.40
X35.45
X35.50
X35.55
X35.60
X35.65
X35.70
X35.75
X35.80
X35.85
X35.90
X35.95
X36.00
X36.05
X36.10
X36.15
X36.20
X36.25
X36.30
X36.35
X36.40
X36.45
X36.50
X36.55
X36.60
X36.65
X36.70
X36.75
X36.80
X36.85
X36.90
X36.95
X37.00
X37.05
X37.10
X37.15
X37.20
X37.25
X37.30
X37.35
X37.40
X37.45
X37.50
X37.55
X37.60
X37.65
X37.70
X37.75
X37.80
X37.85
X37.90
X37.95
X38.00
X38.05
X38.10
X38.15
X38.20
X38.25
X38.30
X38.35
X38.40
X38.45
X38.50
X38.55
X38.60
X38.65
X38.70
X38.75
X38.80
X38.85
X38.90
X38.95
X39.00
X39.05
X39.10
X39.15
X39.20
X39.25
X39.30
X39.35
X39.40
X39.45
X39.50
X39.55
X39.60
X39.65
X39.70
X39.75
X39.80
X39.85
X39.90
X39.95
X40.00
X40.05
X40.10
X40.15
X40.20
X40.25
X40.30
X40.35
X40.40
X40.45
X40.50
X40.55
X40.60
X40.65
X40.70
X40.75
X40.80
X40.85
X40.90
X40.95
X41.00
X41.05
X41.10
X41.15
X41.20
X41.25
X41.30
X41.35
X41.40
X41.43 S13.3137
X41.48 S0.0000
Y1.08
X41.43
X41.40 S19.7647
X41.35 S26.3529
X41.30
X41.25
X41.20
X41.15
X41.10
X41.05
X41.00
X40.95
X40.90
X40.85
X40.80
X40.75
X40.70
X40.65
X40.60
X40.55
X40.50
X40.45
X40.40
X40.35
X40.30
X40.25
X40.20
X40.15
X40.10
X40.05
X40.00
X39.95
X39.90
X39.85
X39.80
X39.75
X39.70
X39.65
X39.60
X39.55
X39.50
X39.45
X39.40
X39.35
X39.30
X39.25
X39.20
X39.15
X39.10
X39.05
X39.00
X38.95
X38.90
X38.85
X38.80
X38.75
X38.70
X38.65
X38.60
X38.55
X38.50
X38.45
X38.40
X38.35
X38.30
X38.25
X38.20
X38.15
X38.10
X38.05
X38.00
X37.95
X37.90
X37.85
X37.80
X37.75
X37.70
X37.65
X37.60
X37.55
X37.50
X37.45
X37.40
X37.35
X37.30
X37.25
X37.20
X37.15
X37.10
X37.05
X37.00
X36.95
X36.90
X36.85
X36.80
X36.75
X36.70
X36.65
X36.60
X36.55
X36.50
X36.45
X36.40
X36.35
X36.30
X36.25
X36.20
X36.15
X36.10
X36.05
X36.00
X35.95
X35.90
X35.85
X35.80
X35.75
X35.70
X35.65
X35.60
X35.55
X35.50
X35.45
X35.40
X35.35
X35.30
X35.25
X35.20
X35.15
X35.10
X35.05
X35.00
X34.95
X34.90
X34.85
X34.80
X34.75
X34.70
X34.65
X34.60
X34.55
X34.50
X34.45
X34.40
X34.35
X34.30
X34.25
X34.20
X34.15
X34.10
X34.05
X34.00
X33.95
X33.90
X33.85
X33.80
X33.75
X33.70
X33.65
X33.60
X33.55
X33.50
X33.45
X33.40
X33.35
X33.30
X33.25
X33.20
X33.15
X33.10
X33.05
X33.00
X32.95
X32.90
X32.85
X32.80
X32.75
X32.70
X32.65
X32.60
X32.55
X32.50
X32.45
X32.40
X32.35
X32.30
X32.25
X32.20
X32.15
X32.10
X32.05
X32.00
X31.95
X31.90
X31.85
X31.80
X31.75
X31.70
X31.65
X31.60
X31.55
X31.50
X31.45
X31.40
X31.35
X31.30
X31.25
X31.20
X31.15
X31.10
X31.05
X31.00
X30.95
X30.90
X30.85
X30.80
X30.75
X30.70
X30.65
X30.60
X30.55
X30.50
X30.45
X30.40
X30.35
X30.30
X30.25
X30.20
X30.15
X30.10
X30.05
X30.00
X29.95
X29.90
X29.85
X29.80
X29.75
X29.70
X29.65
X29.60
X29.55
X29.50
X29.45
X29.40
X29.35
X29.30
X29.25
X29.20
X29.15
X29.10
X29.05
X29.00
X28.95
X28.90
X28.85
X28.80
X28.75
X28.70
X28.65
X28.60
X28.55
X28.50
X28.45
X28.40
X28.35
X28.30
X28.25
X28.20
X28.15
X28.10
X28.05
X28.00
X27.95
X27.90
X27.85
X27.80
X27.75
X27.70
X27.65
X27.60
X27.55
X27.50
X27.45
X27.40
X27.35
X27.30
X27.25
X27.20
X27.15
X27.10
X27.05
X27.00
X26.95
X26.90
X26.85
X26.80
X26.75
X26.70
X26.65
X26.60
X26.55
X26.50
X26.45
X26.40
X26.35
X26.30
X26.25
X26.20
X26.15
X26.10
X26.05
X26.00
X25.95
X25.90
X25.85
X25.80
X25.75
X25.70
X25.65
X25.60
X25.55
X25.50
X25.45
X25.40
X25.35
X25.30
X25.25
X25.20
X25.15
X25.10
X25.05
X25.00
X24.95
X24.90
X24.85
X24.80
X24.75
X24.70
X24.65
X24.60
X24.55
X24.50
X24.45
X24.40
X24.35
X24.30
X24.25
X24.20
X24.15
X24.10
X24.05
X24.00
X23.95
X23.90
X23.85
X23.80
X23.75
X23.70
X23.65
X23.60
X23.55
X23.50
X23.45
X23.40
X23.35
X23.30
X23.25
X23.20
X23.15
X23.10
X23.05
X23.00
X22.95
X22.90
X22.85
X22.80
X22.75
X22.70
X22.65
X22.60
X22.55
X22.50
X22.45
X22.40
X22.35
X22.30
X22.25
X22.20
X22.15
X22.10
X22.05
X22.00
X21.95
X21.90
X21.85
X21.80
X21.75
X21.70
X21.65
X21.60
X21.55
X21.50
X21.45
X21.40
X21.35
X21.30
X21.25
X21.20
X21.15
X21.10
X21.05
X21.00
X20.95
X20.90
X20.85
X20.80
X20.75
X20.70
X20.65
X20.60
X20.55
X20.50
X20.45
X20.40
X20.35
X20.30
X20.25
X20.20
X20.15
X20.10
X20.05
X20.00
X19.95
X19.90
X19.85
X19.80
X19.75
X19.70
X19.65
X19.60
X19.55
X19.50
X19.45
X19.40
X19.35
X19.30
X19.25
X19.20
X19.15
X19.10
X19.05
X19.00
X18.95
X18.90
X18.85
X18.80
X18.75
X18.70
X18.65
X18.60
X18.55
X18.50
X18.45
X18.40
X18.35
X18.30
X18.25
X18.20
X18.15
X18.10
X18.05
X18.00
X17.95
X17.90
X17.85
X17.80
X17.75
X17.70
X17.65
X17.60
X17.55
X17.50
X17.45
X17.40
X17.35
X17.30
X17.25
X17.20
X17.15
X17.10
X17.05
X17.00
X16.95
X16.90
X16.85
X16.80
X16.75
X16.70
X16.65
X16.60
X16.55
X16.50
X16.45
X16.40
X16.35
X16.30
X16.25
X16.20
X16.15
X16.10
X16.05
X16.00
X15.95
X15.90
X15.85
X15.80
X15.75
X15.70
X15.65
X15.60
X15.55
X15.50
X15.45
X15.40
X15.35
X15.30
X15.25
X15.20
X15.15
X15.10
X15.05
X15.00
X14.95
X14.90
X14.85
X14.80
X14.75
X14.70
X14.65
X14.60
X14.55
X14.50
X14.45
X14.40
X14.35
X14.30
X14.25
X14.20
X14.15
X14.10
X14.05
X14.00
X13.95
X13.90
X13.85
X13.80
X13.75
X13.70
X13.65
X13.60
X13.55
X13.50
X13.45
X13.40
X13.35
X13.30
X13.25
X13.20
X13.15
X13.10
X13.05
X13.00
X12.95
X12.90
X12.85
X12.80
X12.75
X12.70
X12.65
X12.60
X12.55
X12.50
X12.45
X12.40
X12.35
X12.30
X12.25
X12.20
X12.15
X12.10
X12.05
X12.00
X11.95
X11.90
X11.85
X11.80
X11.75
X11.70
X11.65
X11.60
X11.55
X11.50
X11.45
X11.40
X11.35
X11.30
X11.25
X11.20
X11.15
X11.10
X11.05
X11.00
X10.95
X10.90
X10.85
X10.80
X10.75
X10.70
X10.65
X10.60
X10.55
X10.50
X10.45
X10.40
X10.35
X10.30
X10.25
X10.20
X10.15
X10.10
X10.05
X10.00
X9.95
X9.90
X9.85
X9.80
X9.75
X9.70
X9.65
X9.60
X9.55
X9.50
X9.45
X9.40
X9.35
X9.30
X9.25
X9.20
X9.15
X9.10
X9.05
X9.00
X8.95
X8.90
X8.85
X8.80
X8.75
X8.70
X8.65
X8.60
X8.55
X8.50
X8.45
X8.40
X8.35
X8.30
X8.25
X8.20
X8.15
X8.10
X8.05
X8.00
X7.95
X7.90
X7.85
X7.80
X7.75
X7.70
X7.65
X7.60
X7.55
X7.50
X7.45
X7.40
X7.35
X7.30
X7.25
X7.20
X7.15
X7.10
X7.05
X7.00
X6.95
X6.90
X6.85
X6.80
X6.75
X6.70
X6.65
X6.60
X6.55
X6.50
X6.45
X6.40
X6.35
X6.30
X6.25
X6.20
X6.15
X6.10
X6.05
X6.00
X5.95
X5.90
X5.85
X5.80
X5.75
X5.70
X5.65
X5.60
X5.55
X5.50
X5.45
X5.40
X5.35
X5.30
X5.25
X5.20
X5.15
X5.10
X5.05
X5.03 S11.6667
Y1.13 S0.0000
X5.05 S15.3725
X5.10 S35.0000
X5.15
X5.20
X5.25
X5.30
X5.35
X5.40
X5.45
X5.50
X5.55
X5.60
X5.65
X5.70
X5.75
X5.80
X5.85
X5.90
X5.95
X6.00
X6.05
X6.10
X6.15
X6.20
X6.25
X6.30
X6.35
X6.40
X6.45
X6.50
X6.55
X6.60
X6.65
X6.70
X6.75
X6.80
X6.85
X6.90
X6.95
X7.00
X7.05
X7.10
X7.15
X7.20
X7.25
X7.30
X7.35
X7.40
X7.45
X7.50
X7.55
X7.60
X7.65
X7.70
X7.75
X7.80
X7.85
X7.90
X7.95
X8.00
X8.05
X8.10
X8.15
X8.20
X8.25
X8.30
X8.35
X8.40
X8.45
X8.50
X8.55
X8.60
X8.65
X8.70
X8.75
X8.80
X8.85
X8.90
X8.95
X9.00
X9.05
X9.10
X9.15
X9.20
X9.25
X9.30
X9.35
X9.40
X9.45
X9.50
X9.55
X9.60
X9.65
X9.70
X9.75
X9.80
X9.85
X9.90
X9.95
X10.00
X10.05
X10.10
X10.15
X10.20
X10.25
X10.30
X10.35
X10.40
X10.45
X10.50
X10.55
X10.60
X10.65
X10.70
X10.75
X10.80
X10.85
X10.90
X10.95
X11.00
X11.05
X11.10
X11.15
X11.20
X11.25
X11.30
X11.35
X11.40
X11.45
X11.50
X11.55
X11.60
X11.65
X11.70
X11.75
X11.80
X11.85
X11.90
X11.95
X12.00
X12.05
X12.10
X12.15
X12.20
X12.25
X12.30
X12.35
X12.40
X12.45
X12.50
X12.55
X12.60
X12.65
X12.70
X12.75
X12.80
X12.85
X12.90
X12.95
X13.00
X13.05
X13.10
X13.15
X13.20
X13.25
X13.30
X13.35
X13.40
X13.45
X13.50
X13.55
X13.60
X13.65
X13.70
X13.75
X13.80
X13.85
X13.90
X13.95
X14.00
X14.05
X14.10
X14.15
X14.20
X14.25
X14.30
X14.35
X14.40
X14.45
X14.50
X14.55
X14.60
X14.65
X14.70
X14.75
X14.80
X14.85
X14.90
X14.95
X15.00
X15.05
X15.10
X15.15
X15.20
X15.25
X15.30
X15.35
X15.40
X15.45
X15.50
X15.55
X15.60
X15.65
X15.70
X15.75
X15.80
X15.85
X15.90
X15.95
X16.00
X16.05
X16.10
X16.15
X16.20
X16.25
X16.30
X16.35
X16.40
X16.45
X16.50
X16.55
X16.60
X16.65
X16.70
X16.75
X16.80
X16.85
X16.90
X16.95
X17.00
X17.05
X17.10
X17.15
X17.20
X17.25
X17.30
X17.35
X17.40
X17.45
X17.50
X17.55
X17.60
X17.65
X17.70
X17.75
X17.80
X17.85
X17.90
X17.95
X18.00
X18.05
X18.10
X18.15
X18.20
X18.25
X18.30
X18.35
X18.40
X18.45
X18.50
X18.55
X18.60
X18.65
X18.70
X18.75
X18.80
X18.85
X18.90
X18.95
X19.00
X19.05
X19.10
X19.15
X19.20
X19.25
X19.30
X19.35
X19.40
X19.45
X19.50
X19.55
X19.60
X19.65
X19.70
X19.75
X19.80
X19.85
X19.90
X19.95
X20.00
X20.05
X20.10
X20.15
X20.20
X20.25
X20.30
X20.35
X20.40
X20.45
X20.50
X20.55
X20.60
X20.65
X20.70
X20.75
X20.80
X20.85
X20.90
X20.95
X21.00
X21.05
X21.10
X21.15
X21.20
X21.25
X21.30
X21.35
X21.40
X21.45
X21.50
X21.55
X21.60
X21.65
X21.70
X21.75
X21.80
X21.85
X21.90
X21.95
X22.00
X22.05
X22.10
X22.15
X22.20
X22.25
X22.30
X22.35
X22.40
X22.45
X22.50
X22.55
X22.60
X22.65
X22.70
X22.75
X22.80
X22.85
X22.90
X22.95
X23.00
X23.05
X23.10
X23.15
X23.20
X23.25
X23.30
X23.35
X23.40
X23.45
X23.50
X23.55
X23.60
X23.65
X23.70
X23.75
X23.80
X23.85
X23.90
X23.95
X24.00
X24.05
X24.10
X24.15
X24.20
X24.25
X24.30
X24.35
X24.40
X24.45
X24.50
X24.55
X24.60
X24.65
X24.70
X24.75
X24.80
X24.85
X24.90
X24.95
X25.00
X25.05
X25.10
X25.15
X25.20
X25.25
X25.30
X25.35
X25.40
X25.45
X25.50
X25.55
X25.60
X25.65
X25.70
X25.75
X25.80
X25.85
X25.90
X25.95
X26.00
X26.05
X26.10
X26.15
X26.20
X26.25
X26.30
X26.35
X26.40
X26.45
X26.50
X26.55
X26.60
X26.65
X26.70
X26.75
X26.80
X26.85
X26.90
X26.95
X27.00
X27.05
X27.10
X27.15
X27.20
X27.25
X27.30
X27.35
X27.40
X27.45
X27.50
X27.55
X27.60
X27.65
X27.70
X27.75
X27.80
X27.85
X27.90
X27.95
X28.00
X28.05
X28.10
X28.15
X28.20
X28.25
X28.30
X28.35
X28.40
X28.45
X28.50
X28.55
X28.60
X28.65
X28.70
X28.75
X28.80
X28.85
X28.90
X28.95
X29.00
X29.05
X29.10
X29.15
X29.20
X29.25
X29.30
X29.35
X29.40
X29.45
X29.50
X29.55
X29.60
X29.65
X29.70
X29.75
X29.80
X29.85
X29.90
X29.95
X30.00
X30.05
X30.10
X30.15
X30.20
X30.25
X30.30
X30.35
X30.40
X30.45
X30.50
X30.55
X30.60
X30.65
X30.70
X30.75
X30.80
X30.85
X30.90
X30.95
X31.00
X31.05
X31.10
X31.15
X31.20
X31.25
X31.30
X31.35
X31.40
X31.45
X31.50
X31.55
X31.60
X31.65
X31.70
X31.75
X31.80
X31.85
X31.90
X31.95
X32.00
X32.05
X32.10
X32.15
X32.20
X32.25
X32.30
X32.35
X32.40
X32.45
X32.50
X32.55
X32.60
X32.65
X32.70
X32.75
X32.80
X32.85
X32.90
X32.95
X33.00
X33.05
X33.10
X33.15
X33.20
X33.25
X33.30
X33.35
X33.40
X33.45
X33.50
X33.55
X33.60
X33.65
X33.70
X33.75
X33.80
X33.85
X33.90
X33.95
X34.00
X34.05
X34.10
X34.15
X34.20
X34.25
X34.30
X34.35
X34.40
X34.45
X34.50
X34.55
X34.60
X34.65
X34.70
X34.75
X34.80
X34.85
X34.90
X34.95
X35.00
X35.05
X35.10
X35.15
X35.20
X35.25
X35.30
X35.35
X35.40
X35.45
X35.50
X35.55
X35.60
X35.65
X35.70
X35.75
X35.80
X35.85
X35.90
X35.95
X36.00
X36.05
X36.10
X36.15
X36.20
X36.25
X36.30
X36.35
X36.40
X36.45
X36.50
X36.55
X36.60
X36.65
X36.70
X36.75
X36.80
X36.85
X36.90
X36.95
X37.00
X37.05
X37.10
X37.15
X37.20
X37.25
X37.30
X37.35
X37.40
X37.45
X37.50
X37.55
X37.60
X37.65
X37.70
X37.75
X37.80
X37.85
X37.90
X37.95
X38.00
X38.05
X38.10
X38.15
X38.20
X38.25
X38.30
X38.35
X38.40
X38.45
X38.50
X38.55
X38.60
X38.65
X38.70
X38.75
X38.80
X38.85
X38.90
X38.95
X39.00
X39.05
X39.10
X39.15
X39.20
X39.25
X39.30
X39.35
X39.40
X39.45
X39.50
X39.55
X39.60
X39.65
X39.70
X39.75
X39.80
X39.85
X39.90
X39.95
X40.00
X40.05
X40.10
X40.15
X40.20
X40.25
X40.30
X40.35
X40.40
X40.45
X40.50
X40.55
X40.60
X40.65
X40.70
X40.75
X40.80
X40.85
X40.90
X40.95
X41.00
X41.05
X41.10
X41.15
X41.20
X41.25
X41.30
X41.35
X41.40
X41.43 S26.3529
X41.48 S0.0000
Y1.18
X41.43
X41.40 S26.3529
X41.35 S35.0000
X41.30
X41.25
X41.20
X41.15
X41.10
X41.05
X41.00
X40.95
X40.90
X40.85
X40.80
X40.75
X40.70
X40.65
X40.60
X40.55
X40.50
X40.45
X40.40
X40.35
X40.30
X40.25
X40.20
X40.15
X40.10
X40.05
X40.00
X39.95
X39.90
X39.85
X39.80
X39.75
X39.70
